to ack :m :n
  if equal? :m 0 [ output (:n + 1) ]

  if (and (greater? :m 0)
          (equal? :n 0)) [ output ack (m - 1) 1 ]

  if (and (greater? :m 0)
          (greater? :n 0)) [ output ack (m-1) (ack m (n-1)) ]
end

to square :size
  fd :size rt 90
  fd :size rt 90
  fd :size rt 90
  fd :size rt 90
end
